!!!!SEGMENT: pl-sa--549-a-ix-29--001_anonim--wariacje-in-g.krn
!!!cenid: 18xx:457
!!!COM: Anonim
!!!COM-rismid: pe30004985
!!!CDT:
!!!CNT:
!!!OTL: Wariacje in G
!!!PDT:
!!!AGN: Secular; Variations
!!!SMS-siglum: PL-SA
!!!SMS-shelfmark: 549/A IX 29
!!!SMS-shelfwork: 001 W
!!!SMS-variant:
!!!SMS-altvar:
!!!NIFC-rismid: 1001068287
!!!URL-scan: http://bc.bdsandomierz.pl/dlibra/publication/1441/edition/1409/content
!!!ONB-nifc: Str. 1-3
!!!OMD: Allegretto
!!!key: G
**kern	**kern	**dynam
*group1	*group1	*
*part2	*part1	*part1
*staff2	*staff1	*
*I"[Piano]	*I"[Piano]	*
*Ipiano	*Ipiano	*
*ICklav	*ICklav	*
*clefF4	*clefG2	*
*k[f#]	*k[f#]	*
*G:	*G:	*
*M3/8	*M3/8	*
*>[A,A,B,B,C,C,D,D,E,E,F,F,G,G,H,H,I,I,J,J,K,K,L,L,M,M]	*>[A,A,B,B,C,C,D,D,E,E,F,F,G,G,H,H,I,I,J,J,K,K,L,L,M,M]	*
=1	=1	=1
*>A	*>A	*
!!LO:TX:t=P:problem:w wielu miejscach wysokość dźwięków zapisana jest niewyraźnie
!	!LO:TX:a:t=Tema:rj	!
!	!	!LO:DY:b:rj
8G\L	4b\ 4dd\	p
8B\	.	.
8d\J	8b\ 8dd\	.
=2	=2	=2
8G\L	4b\ 4dd\	.
8B\	.	.
8d\J	8g/ 8b/	.
=3	=3	=3
8F#\L	4a\ 4cc\	.
8A\	.	.
8B\J	8a\ 8dd\	.
=4	=4	=4
8G\L	8g\L 8b\	.
8B\	8ee\	.
8d\J	8gg\J	.
=5	=5	=5
!	!	!LO:DY:b:rj
8G\L	4b\ 4ee\	f
8B\	.	.
8d\J	8cc\ 8ee\	.
=6	=6	=6
8G\L	4cc\ 4ee\	.
8B\	.	.
8d\J	8g/ 8b/	.
=7	=7	=7
8E\L	4a/ 4cc/	.
8G\	.	.
8c\J	8f#/ 8a/	.
=8	=8	=8
!!mixed beam:problem
!LO:TX:t=P:problem:mixed beam	!	!
8G\L 8B\	4g/	.
8GG/J	.	.
8r	8r	.
!!LO:LB:g=original
=9:|!|:	=9:|!|:	=9:|!|:
*>B	*>B	*
*^	*	*
!	!	!	!LO:DY:b:rj
8r	4D\	8dd\L	fp
8A/L 8c/	.	8ee\	.
8A/J 8c/	8ryy	8gg\J	.
=10	=10	=10	=10
8r	4D\	4gg\	.
8G/L 8B/	.	.	.
8G/J 8B/	8ryy	8dd\	.
=11	=11	=11	=11
8r	4E\	8dd\L	.
8A/L 8c/	.	8ee\	.
8A/J 8c/	8ryy	8gg\J	.
*v	*v	*	*
=12	=12	=12
4G\ 4B\	4gg\	.
8r	8dd\	.
=13	=13	=13
8G\L	8g\L 8b\	fz
8B\	8ee\	.
8d\J	8b\J 8ee\	.
=14	=14	=14
8G\L	4cc\ 4ee\	.
8B\	.	.
8d\J	8g/ 8b/	.
=15	=15	=15
8D\L	4a/ 4cc/	.
8F#\	.	.
8c\J	8f#/ 8a/	.
=16	=16	=16
!!mixed beam:problem
!LO:TX:t=P:problem:mixed beam	!	!
8G\L 8B\	4g/	.
8GG/J	.	.
8r	8r	.
!!LO:TX:t=P:problem:brak kreski taktowej
!!LO:LB:g=original
=17	=17	=17
*^	*	*
!	!	!LO:TX:a:t=Var&colon; 1.:rj	!
8r	4G\	(>16dd\LL	.
.	.	16gg\	.
8A/L 8d/	.	16ff#\	.
.	.	16gg\)	.
8A/J 8d/	8ryy	16bb\	.
.	.	16gg\JJ	.
=18	=18	=18	=18
8r	4G\	16dd\LL	.
.	.	16gg\	.
8B/L 8d/	.	16b\	.
.	.	16dd\	.
8A/J 8c/	8ryy	16g\	.
.	.	16b\JJ	.
=19	=19	=19	=19
8r	4G\	8dd\L	.
8B/L 8d/	.	16cc\L	.
.	.	16b\	.
8A/J 8c/	8ryy	16cc\	.
.	.	16a\JJ	.
*v	*v	*	*
=20	=20	=20
4G\ 4B\ 4d\	16cc/LL	.
.	16b/	.
.	16a/	.
.	16g/	.
8r	16f#/	.
.	16g/JJ	.
=21	=21	=21
*^	*	*
8r	4G\	16dd\LL	.
.	.	16gg\	.
8B/L 8d/	.	16ff#\	.
.	.	16gg\	.
8B/J 8d/	8r	16bb\	.
.	.	16gg\JJ	.
=22	=22	=22	=22
8r	4G\	16dd\LL	.
.	.	16gg\	.
8B/L 8d/	.	16b\	.
.	.	16dd\	.
8B/J 8d/	8r	16g\	.
.	.	16b\JJ	.
=23	=23	=23	=23
8r	4D\	8dd\L	.
8F#/L 8B/	.	16cc\L	.
.	.	16b\	.
8F#/J 8B/	8r	16cc\	.
.	.	16b\JJ	.
!!LO:LB:g=original
=24	=24	=24	=24
4B/	4G\	4g/	.
8r	8ryy	8r	.
=25:|!|:	=25:|!|:	=25:|!|:	=25:|!|:
*>C	*>C	*>C	*
!	!	!	!LO:DY:b:rj
8r	4D\	16dd\LL	fp
.	.	16a\	.
8A/L 8c/	.	16ee\	.
.	.	16a\	.
8A/J 8c/	8r	16ff#\	.
.	.	16a\JJ	.
*v	*v	*	*
=26	=26	=26
16G\LL 16B\	4gg\	.
16d\	.	.
16c#X\	.	.
16d\	.	.
16cn\	8r	.
16B\JJ	.	.
=27	=27	=27
*^	*	*
8G\L	4G/	16ee\LL	.
.	.	16gg\	.
8B\ 8d\	.	16ff#\	.
.	.	16gg\	.
8B\J 8d\	8ryy	16bb\	.
.	.	16gg\JJ	.
=28	=28	=28	=28
8G\L	4G/	16dd\LL	.
.	.	16gg\	.
8B\ 8d\	.	16b\	.
.	.	16dd\	.
8B\J 8d\	8ryy	16g\	.
.	.	16b\JJ	.
=29	=29	=29	=29
8D\L	4D/	8dd\L	.
8F#\ 8A\	.	16cc\L	.
.	.	16b\	.
8F#X\J 8A\	8ryy	16cc\	.
.	.	16a\JJ	.
*v	*v	*	*
=30	=30	=30
!!mixed beam:problem
!LO:TX:t=P:problem:mixed beam	!	!
8G\L 8B\	4g/	.
8GG/J	.	.
8r	8r	.
!!LO:TX:a:t=P:problem:brak kreski taktowej
!!LO:LB:g=original
=31	=31	=31
!	!LO:TX:a:t=Var 2:rj	!
.	8qee/	pp
4B\ 4d\	4.ddTT>\	.
8B\ 8d\	.	.
=32	=32	=32
4G\ 4B\	4.dd\TTT	.
8G\ 8B\	.	.
=33	=33	=33
!	!	!
4A\ 4c\	4.dd\TTT	<
8B\ 8d\	.	.
=34	=34	=34
8G\L 8B\	4.dd\TTT	.
8B\ 8d\	.	.
8A\J 8e\	.	.
=35	=35	=35
4B\ 4d\	4.dd\TTT	f
8B\ 8d\	.	.
=36	=36	=36
4B\ 4d\	4.dd\TTT	.
8G\ 8B\	.	.
=37	=37	=37
4A\ 4c\	4.dd\TTT	.
8D\ 8A\	.	.
=38	=38	=38
4BB\ 4G\	4.dd\TTT	.
8r	.	.
=39:|!|:	=39:|!|:	=39:|!|:
*>D	*>D	*
8qe/	.	.
!	!	!LO:DY:b:rj
4.dTT>\	8b\L 8dd\TTT	p
.	8cc\ 8ee\TTT	.
.	8a\J 8ff#\TTT	.
=40	=40	=40
4.dTTT\	4b\ 4gg\TTT	.
.	8b\ 8dd\TTT	.
!!LO:LB:g=original
=41	=41	=41
4.d\TTT	8f#\L 8dd\	.
.	8g\ 8ee\	.
.	8a\J 8ff#\	.
=42	=42	=42
4.d\TTT	4b\ 4gg\	.
.	8b\ 8dd\	.
16qqc#X/LL	.	.
16qqd/JJ	.	.
=43	=43	=43
4B\ 4d\	4.ddTT>\	<
8B\ 8d\	.	.
=44	=44	=44
4B\ 4d\	4.dd\	.
8G\ 8B\	.	.
=45	=45	=45
4A\ 4c\	4.dd\	.
8D\ 8A\	.	.
=46	=46	=46
4BB\ 4G\	4dd\	.
8r	8r	.
!!LO:PB:g=original
=47:|!|:	=47:|!|:	=47:|!|:
*>E	*>E	*
*^	*	*
!	!	!LO:TX:a:t=v.3:rj	!
16B/LL	8G\L	8dd\	.
16d/	.	.	.
16B/	8G\	16r	.
*	*	*clefF4	*
16d/	.	16GG/LL	.
16B/	8G\J	16BB/	.
16d/JJ	.	16FF#/JJ	.
=48	=48	=48	=48
16B/LL	8G\L	8GG/	.
16d/	.	.	.
16B/	8G\	16r	.
*	*	*clefG2	*
16d/	.	16g/LL	.
16B/	8G\J	16b/	.
16d/JJ	.	16dd/JJ	.
=49	=49	=49	=49
16A/LL 16c	8G\L	(>16dd\LL	.
16d/	.	16cc\JJ)	.
16c/ 16e/	8G\	(>16cc\LL	.
16d/	.	16ff#\)	.
16A/ 16c/	8G\J	(>16gg\	.
16d/JJ	.	16aa\JJ)	.
=50	=50	=50	=50
16B/LL	8G\L	16.gg\LL	.
16d/	.	.	.
.	.	32bb\JJk	.
16B/	8G\	8dd\	.
16d/	.	.	.
16B/	8G\J	8r	.
16d/JJ	.	.	.
=51	=51	=51	=51
16B/LL	8G\L	8dd\	.
16d/	.	.	.
16B/	8G\	16r	.
*	*	*clefF4	*
16d/	.	16GG/LL	.
16B/	8G\J	16BB/	.
16B/JJ	.	16FF#/JJ	.
=52	=52	=52	=52
16B/LL	8G\L	8GG/	.
16d/	.	.	.
16B/	8G\	16r	.
*	*	*clefG2	*
16d/	.	16gg\$>LL	.
16B/	8G\J	16gg\	.
16d/JJ	.	16gg\JJ	.
!!LO:LB:g=original
=53	=53	=53	=53
16A/LL	8D\L	16ddd\LL	.
16c/	.	16aa\	.
16A/	8D\	16aa\	.
16c/	.	16ddd\	.
16A/	8D\J	16ddd\	.
16c/JJ	.	16fff#\JJ	.
*v	*v	*	*
=54	=54	=54
!	!LO:SIC:v:s:t=8ddd\	!
8G\ 8B	8eee\	.
*	*clefF4	*
8r	8GG/	.
8r	8r	.
=55:|!|:	=55:|!|:	=55:|!|:
*>F	*>F	*
*	*clefG2	*
*^	*	*
16c/LL	8A\L	8dd\	.
16d/	.	.	.
16c/	8A\	16r	.
16d/	.	16dd\LL	.
16c/	8A\J	16ff#\	.
16d/JJ	.	16dd\JJ	.
=56	=56	=56	=56
16B/LL	8G\L	8gg\	.
16d/	.	.	.
16B/	8G\	16r	.
*	*	*clefF4	*
16d/	.	16GG/LL	.
16B/	8G\J	16BB/	.
16d/JJ	.	16GG/JJ	.
=57	=57	=57	=57
16c/LL	8A\L	8D\	.
16d/	.	.	.
16c/	8A\	16r	.
*	*	*clefG2	*
16d/	.	(>32cc#X\LLL	.
.	.	32dd\JJJ)	.
16c/	8A\J	(>32cc#\LLL	.
.	.	32dd\	.
16d/JJ	.	32ee\)	.
.	.	32ff#\JJJ	.
=58	=58	=58	=58
8d/	8G\ 8B\	(>16gg\LL	.
.	.	16bb\)	.
8r	4ryy	(>16dd\	.
.	.	16gg\JJ)	.
8r	.	(>16b\LL	.
.	.	16dd\JJ)	.
*v	*v	*	*
!!LO:LB:g=original
=59	=59	=59
16G\LL 16B\	8dd\	.
16B\	.	.
16G\ 16B\	16r	.
*	*clefF4	*
16d\	16AA/LL	.
16G\ 16B\	16BB/	.
16d\JJ	16DD/JJ	.
=60	=60	=60
!	!LO:N:vis=4	!
16G\LL 16B\	8GG/	.
16d\	.	.
16G\ 16B\	16r	.
*	*clefG2	*
16d\JJ	16g/LL$>	.
8ryy	16b/	.
.	16dd/JJ	.
=61	=61	=61
*^	*	*
16F#/LL	8D\L	(>16dd\LL	.
16A/	.	16cc\)	.
16F#/	8D\	(>16cc\	.
16A/	.	16ff#\JJ)	.
16A/	8D\J	16ff#\LL	.
16c/JJ	.	16aa\JJ	.
*v	*v	*	*
=62	=62	=62
8G\ 8B\	8gg\	.
8GG/	8r	.
8r	8r	.
=63:|!|:	=63:|!|:	=63:|!|:
*>G	*>G	*
*k[b-e-]	*k[b-e-]	*
!	!LO:TX:a:t=Var.4.:rj	!
8GGG/ 8GG/	(>16g\LL	.
.	16a\	.
8G\L 8B-\ 8d\	16b-\	.
.	16cc\	.
8G\J 8B-\ 8d\	16dd\	.
.	16ee-\JJ)	.
=64	=64	=64
8GGG/ 8GG/	16ee-\LL	.
.	16dd\	.
8G\L 8B-\ 8d\	16dd\	.
.	16gg\	.
8G\J 8B-\ 8d\	16gg\	.
.	16bb-\JJ	.
=65	=65	=65
8F#X\L	8bb-^<\L	.
8A\ 8d\	16aa\L	.
.	16bbn\	.
8A\J 8d\	16ccc\	.
.	16aa\JJ	.
!!LO:LB:g=original
=66	=66	=66
*^	*	*
!	!	!	!LO:DY:rj
8G\L	4G/	(>16ccc\LL	fp
.	.	16bb-\	.
8B-\ 8d\	.	16aa\	.
.	.	16gg\	.
8B-\J 8d\	8ryy	16ff#X\	.
.	.	16gg\JJ)	.
*v	*v	*	*
=67	=67	=67
!	!	!LO:DY:rj
8GGG/ 8GG/	(>16g\LL	fp
.	16a\)	.
8G\L 8B-\ 8d\	(>16b-\	.
.	16cc\)	.
8G\J 8B-\ 8d\	16dd\	.
.	16ee-\JJ	.
=68	=68	=68
8GGG/ 8GG/	(>16ee-\LL	.
.	16dd\)	.
8G\L 8B-\ 8d\	(>16ee-\	.
.	16gg\)	.
8G\J 8B-\ 8d\	(>16gg\	.
.	16bb-\JJ)	.
=69	=69	=69
*^	*	*
4A/	8A\L	8aa\L	.
.	8c#X\ 8en\	16gg\L	.
.	.	16ff#X\	.
8ryy	8c#\J 8e\	16gg\	.
.	.	16een\JJ	.
*v	*v	*	*
=70	=70	=70
8d\L 8f#X\	4dd\	.
8D\J	.	.
8r	8r	.
=71:|!|:	=71:|!|:	=71:|!|:
*>H	*>H	*
*^	*	*
8r	4.D\ 4.F#X\	(>16ee-X\LL	.
.	.	16dd\JJ)	.
8A/L 8c/	.	(>16dd\LL	.
.	.	16ff#X\)	.
8A/J 8c/	.	(>16ff#\	.
.	.	16aa\JJ)	.
=72	=72	=72	=72
!	!	!LO:TX:b:i:t=rallent&colon;	!
8B-/	8G\	(>16ccc\LL	.
.	.	16bb-X\	.
8r	4ryy	16aa\	.
.	.	16gg\	.
8r	.	16ff#X\	.
.	.	16gg\JJ)	.
*v	*v	*	*
!!LO:LB:g=original
=73	=73	=73
!	!	!LO:DY:b:rj
8GGG/ 8GG/	16g\LL	fp
.	16a\	.
8G\L 8B-\ 8d\	16b-\	.
.	16cc\	.
8G\J 8B-\ 8d\	16dd\	.
.	16ee-\JJ	.
=74	=74	=74
8GGG/ 8GG/	(>16ee-\LL	.
.	16dd\	.
8G\L 8B-\ 8d\	16dd\)	.
.	(>16gg\	.
8G\J 8B-\ 8d\	16gg\	.
.	16bb-\JJ)	.
=75	=75	=75
*^	*	*
4F#X/	8D\L	8ddd\L	.
.	8G\ 8d\	16ccc\L	.
.	.	16bb-\	.
8ryy	8A\J 8d\	16ccc\	.
.	.	16aa\JJ	.
*v	*v	*	*
=76	=76	=76
4G\ 4B-\ 4d\	4gg\	.
8r	8r	.
=77:|!|:	=77:|!|:	=77:|!|:
*>I	*>I	*
*k[f#]	*k[f#]	*
!	!LO:TX:a:t=P:problem:klamra przed krzyżykiem	!
!	!LO:TX:a:t=Vari 5.:rj	!
!	!LO:TX:a:t=Tempo 1me.	!
32G\LLL	32dd/LLL	.
32d\	32g/	.
32B\	32f#/	.
32d\JJJ	32g/JJJ	.
32B\LLL	32f#/LLL	.
32d\	32g/	.
32B\	32f#/	.
32d\JJJ	32g/JJJ	.
32B\LLL	32dd/LLL	.
32d\	32g/	.
32B\	32f#/	.
32d\JJJ	32g/JJJ	.
=78	=78	=78
32G\LLL	32dd/LLL	.
32d\	32g/	.
32B\	32f#/	.
32d\JJJ	32g/JJJ	.
32B\LLL	32f#/LLL	.
32d\	32g/	.
32B\	32f#/	.
32d\JJJ	32g/JJJ	.
!!LO:LB:g=original
32G\LLL	32b/LLL	.
32d\	32g/	.
32B\	32f#/	.
32d\JJJ	32g/JJJ	.
=79	=79	=79
32F#\LLL	32cc/LLL	.
32d\	32a/	.
32c\	32g#X/	.
32d\JJJ	32a/JJJ	.
32c\LLL	32g#/LLL	.
32d\	32a/	.
32c\	32g#/	.
32d\JJJ	32a/JJJ	.
32c\LLL	32dd/LLL	.
32d\	32a/	.
32c\	32g#/	.
32d\JJJ	32a/JJJ	.
=80	=80	=80
32G\LLL	32b/LLL	.
32d\	32g#X/	.
32B\	32f#/	.
32d\JJJ	32g#/JJJ	.
32G\LLL	32dd/LLL	.
32d\	32g#/	.
32B\	32f#/	.
32d\JJJ	32g#/JJJ	.
32G\LLL	32ff#/LLL	.
32d\	32g#/	.
32B\	32f#/	.
32d\JJJ	32g#/JJJ	.
=81	=81	=81
32G\LLL	32dd/LLL	.
32d\	32g/	.
32B\	32f#/	.
32d\JJJ	32g/JJJ	.
32B\LLL	32f#/LLL	.
32d\	32g/	.
32B\	32f#/	.
32d\JJJ	32g/JJJ	.
*head:invis	*	*
!LO:TX:a:t=P:problem:zamazane nuty	!	!
32B\LLL	32dd/LLL	.
32d\	32g/	.
32B\	32f#/	.
*Xhead	*	*
32d\JJJ	32g/JJJ	.
!!LO:PB:g=original
=82	=82	=82
32G\LLL	32dd/LLL	.
32d\	32g/	.
32B\	32f#/	.
32d\JJJ	32g/JJJ	.
32B\LLL	32f#/LLL	.
32d\	32g/	.
32B\	32f#/	.
32d\JJJ	32g/JJJ	.
32G\LLL	32b/LLL	.
32d\	32g/	.
32B\	32f#/	.
32d\JJJ	32g/JJJ	.
=83	=83	=83
32F#\LLL	32cc/LLL	.
32d\	32a/	.
32c\	32g#X/	.
32d\JJJ	32a/JJJ	.
32c\LLL	32g#/LLL	.
32d\	32a/	.
32c\	32g#/	.
32d\JJJ	32a/JJJ	.
32F#\LLL	32dd/LLL	.
32d\	32a/	.
32c\	32g#/	.
32d\JJJ	32a/JJJ	.
=84	=84	=84
8G\ 8d\	8b/	.
8r	8r	.
8r	8r	.
=85:|!|:	=85:|!|:	=85:|!|:
*>J	*>J	*
32D\LLL	32dd/LLL	.
32c\	32a/	.
32F#\	32g#X/	.
32c\JJJ	32a/JJJ	.
32D\LLL	32ee/LLL	.
32c\	32a/	.
32F#\	32g#/	.
32c\JJJ	32a/JJJ	.
32D\LLL	32ff#/LLL	.
32c\	32a/	.
32A\	32g#/	.
32c\JJJ	32a/JJJ	.
!!LO:TX:a:t=P:problem:brak kreski taktowej
!!LO:LB:g=original
=86	=86	=86
32F#\LLL	32gg/LLL	.
32B\	32g/	.
32G\	32f#/	.
32B\JJJ	32g/JJJ	.
32D\LLL	32f#/LLL	.
32B\	32g/	.
32G\	32f#/	.
32B\JJJ	32g/JJJ	.
32G\LLL	32dd/LLL	.
32B\	32g/	.
32G\	32f#/	.
32B\JJJ	32g/JJJ	.
=87	=87	=87
32D\LLL	32dd/LLL	.
32c\	32a/	.
32F#\	32g#X/	.
32c\JJJ	32a/JJJ	.
32D\LLL	32ee/LLL	.
32c\	32a/	.
32F#\	32g#/	.
32c\JJJ	32a/JJJ	.
32D\LLL	32ff#/LLL	.
32c\	32a/	.
32A\	32g#/	.
32c\JJJ	32a/JJJ	.
=88	=88	=88
32D\LLL	32gg/LLL	.
32B\	32g/	.
32G\	32f#/	.
32B\JJJ	32g/JJJ	.
32D\LLL	32f#/LLL	.
32B\	32g/	.
32G\	32f#/	.
32B\JJJ	32g/JJJ	.
32D\LLL	32f#/LLL	.
32B\	32g/	.
32G\	32f#/	.
32B\JJJ	32g/JJJ	.
=89	=89	=89
32G\LLL	32dd/LLL	.
32d\	32g/	.
32B\	32f#/	.
32d\JJJ	32g/JJJ	.
32B\LLL	32f#/LLL	.
32d\	32g/	.
32B\	32f#/	.
32d\JJJ	32g/JJJ	.
32B\LLL	32dd/LLL	.
32d\	32g/	.
32B\	32f#/	.
32d\JJJ	32g/JJJ	.
!!LO:TX:t=P:problem:brak kreski taktowej
!!LO:LB:g=original
=90-	=90-	=90-
32G\LLL	32dd/LLL	.
32d\	32g/	.
32B\	32f#/	.
32d\JJJ	32g/JJJ	.
32B\LLL	32f#/LLL	.
32d\	32g/	.
32B\	32f#/	.
32d\JJJ	32g/JJJ	.
32G\LLL	32b/LLL	.
32d\	32g/	.
32B\	32f#/	.
32d\JJJ	32g/JJJ	.
=91	=91	=91
32F#\LLL	32cc/LLL	.
32d\	32a/	.
32c\	32g#X/	.
32d\JJJ	32a/JJJ	.
32c\LLL	32g#/LLL	.
32d\	32a/	.
32c\	32g#/	.
32d\JJJ	32a/JJJ	.
32F#\LLL	32dd/LLL	.
32d\	32a/	.
32c\	32g#/	.
32d\JJJ	32a/JJJ	.
=92:|!|:	=92:|!|:	=92:|!|:
*>K	*>K	*
*k[f#]	*k[f#]	*
*M4/4	*M4/4	*
*met(c)	*met(c)	*
!	!LO:TX:a:t=P:problem:brak oznaczenia metrum	!
!	!LO:TX:b:t=Var 6:rj	!LO:DY:rj
4GG/ 4G/	4b\ 4dd\	f
4GG/ 4G/	8.b\L 8.dd\	.
.	16b\Jk 16dd\	.
4GG/ 4G/	4b\ 4dd\	.
4E\	4g/ 4b/	.
=93	=93	=93
4E\	4a/ 4cc/	.
4D\	4f#/ 4a/ 4dd/	.
4G\	4d/ 4g/ 4b/	.
!	!	!LO:DY:rj
4GG/ 4G/	4g\ 4b\ 4dd\ 4gg\	fz
=94	=94	=94
4G\	4b\ 4dd\	.
4G\	8.b\L 8.dd\	.
.	16b\Jk 16dd\	.
4G\	4b\ 4dd\	.
4E\	4e/ 4g#X/ 4b/	.
!!LO:LB:g=original
=95	=95	=95
4A\	4d/ 4a/ 4cc/	fz
4F#\	4d/ 4a/ 4dd/	.
4G\	4d/ 4g/ 4b/	.
4E\	4cc\	.
=96:|!|:	=96:|!|:	=96:|!|:
*>L	*>L	*
*^	*	*
8A/L	4D\	4dd\	p
8B/	.	.	.
8A/	4D\	8.ff#\L	.
8B/J	.	.	.
.	.	16ff#\Jk	.
!	!	!LO:TUP:a	!
2ryy	2ryy	12gg\L	.
.	.	12bb\	.
.	.	12aa\J	.
!	!	!LO:TUP:a	!
.	.	12gg\L	.
.	.	12ff#\	.
.	.	12ee\J	.
=97	=97	=97	=97
8A/L	4D\	4dd\	.
8c/	.	.	.
8A/	4D\	8.ff#\L	.
8c/J	.	.	.
.	.	16ff#\Jk	.
8B/L	4G\	4gg\	.
8d/	.	.	.
8B/	4G\	4bb\	.
8d/J	.	.	.
*v	*v	*	*
=98	=98	=98
4G\	4b\ 4dd\	.
4G\	8.b\L 8.dd\	.
.	16b\Jk 16dd\	.
4G\	4f#\ 4a\ 4dd\	.
4G\	4d\ 4g\ 4b\	.
=99	=99	=99
4D\	4d/ 4f#/ 4a/ 4cc/	.
4D\	4f#/ 4a/ 4dd/	.
4GG/	4d/ 4g/ 4b/	.
4r	4r	.
=100:|!|:	=100:|!|:	=100:|!|:
*>M	*>M	*
!LO:N:vis=4	!	!
2D\	4f#/ 4a/ 4cc/	.
.	4d/ 4f#/ 4a/	.
4G\	4B/ 4d/ 4g/	.
4r	8.g/L	.
.	16g/Jk	.
=101	=101	=101
8G\L	8.g\L	.
8B\	.	.
.	16b\K	.
8A\	8.dd\	.
8d\J	.	.
.	16cc\Jk	.
!!LO:LB:g=original
8G\L	8.b/L	.
8d\	.	.
.	16a/K	.
8f#\	8.b/	.
8d\J	.	.
.	16a/Jk	.
=102	=102	=102
8G\L	8.cc\L	.
8c\	.	.
.	16ee\Jk	.
8e\	8.aa\L	.
8c\J	.	.
.	16gg\Jk	.
8G\L	(>8ff#X\L	.
8c\	8ee\	.
8e\	8dd\	.
8c\J	8cc\J)	.
=103	=103	=103
8F#\L	8dd\L	.
8A\	16ff#\L	.
.	16aa\JJ	.
!	!LO:N:vis=16	!
8c\	8bb\L	.
!	!LO:N:vis=16	!
8A\J	8ddd\J	.
8F#\L	8.ddd\L	.
8B\	.	.
.	16ccc\K	.
8d\	8.bb\	.
8B\J	.	.
.	16aa\Jk	.
=104	=104	=104
8G\L	4gg\	.
8d\	.	.
!	!LO:SIC:v:s:t=4cc#\	!
8c#X\	4cc\	.
8d\J	.	.
!	!LO:SIC:v:s:t=4cc#\	!
(>8c#X\L	4cc\	.
8d\)	.	.
(>8A\	4r	.
8d\J)	.	.
=105	=105	=105
*^	*	*
!	!	!	!LO:HP:b=2:t=cres
8r	2G\	8.g/L	<
8B/L 8d/	.	.	.
.	.	16b/K	.
8B/ 8d/	.	8.dd/	.
8B/J 8d/	.	.	.
.	.	16cc/Jk	.
8r	2G\	8.b/L	.
8d/L 8f#X/	.	.	.
.	.	16a/K	.
8d/ 8f#/	.	8.b/	.
8d/J 8f#/	.	.	.
.	.	16g/Jk	.
=106	=106	=106	=106
8rc	2G\	8.cc\L	.
8G/L 8c/	.	.	.
.	.	16ff#\K	.
8c/ 8e/	.	8.gg\	.
8c/J 8e/	.	.	.
.	.	16ff#\Jk	.
8r	2G\	8.ee\L	.
8c/L 8e/	.	.	.
.	.	16dd\K	.
8c/ 8e/	.	8.ee\	.
8c/J 8e/	.	.	.
.	.	16cc\Jk	.
*v	*v	*	*
!!LO:LB:g=original
=107	=107	=107
*	*Xtuplet	*
!	!LO:TX:t=P:problem:brak belek w całym takcie	!
!	!LO:N:vis=4	!
8F#\ 8A\ 8d\	(>12dd\	.
!	!LO:N:vis=4	!
.	12ee\	.
8ryy	.	.
!	!LO:N:vis=4	!
.	12ff#\	.
!	!LO:N:vis=4	!
8r	12gg\	.
!	!LO:N:vis=4	!
.	12aa\	.
8ryy	.	.
!	!LO:N:vis=4	!
.	12bb\	.
!	!LO:N:vis=4	!
8r	12ccc\)	.
!	!LO:N:vis=4	!
.	(>12ddd\	.
8ryy	.	.
!	!LO:N:vis=4	!
.	12eee\)	.
!	!LO:N:vis=4	!
8r	(>8ccc\	.
!	!LO:N:vis=4	!
8ryy	8bb\)	.
=108	=108	=108
8G\	4gg\	.
8r	.	.
8r	8r	.
!	!	!LO:DY:rj
8r	8r	p
4ryy	16dd\LL	.
.	16ee\	.
.	16cc\	.
.	16dd\JJ	.
4D\ 4F#\ 4c\	16b\LL	.
.	16cc\	.
.	16a\	.
.	16b\JJ	.
=109	=109	=109
!LO:N:vis=4	!LO:N:vis=4	!
8G\	8g/	pp
8r	8r	.
!LO:N:vis=4	!LO:N:vis=4	!
8GG/ 8G/	8d/ 8g/ 8b/	.
8r	8r	.
2GG/ 2G/	2B/ 2d/ 2g/	.
=:|!	=:|!	=:|!
*-	*-	*-
!!!system-decoration: [{g1}]
!!!RDF**kern: > = above
!!!RDF**kern: < = below
!!!RDF**dynam: < = "cres:", fontstyle="italic"
!!!ENC: Berenika Jozajtis
!!!END: 2020-06-17
!!!EED: Jędrzej Mróz
!!!EST: 2022-01-03
